!!!OTL-incipit: HERR OLOFF REITET SO SPAET UND WEIT
!!!ARE: Europa, Mitteleuropa, Deutschland, Norddeutschland
!!!SCT: Z0008
!!!TXL: @@DE
!!!YEM: Copyright 1995, estate of Helmut Schaffrath.
**kern	**text
*ICvox	*
!! Mixed meters:  6/8; 4/4
*M6/8	*
*k[b-]	*
*F:	*
!LO:TX:a:t=Norddeutſch.	!
{8c	Herr
=1	=1
8.aL	O-
16b-J	.
8g	-loff
8f	rei-
8c	-tet
8f	ſo
=2	=2
8.aL	ſpät
16b-J	.
8g	und
4f}	weit,
{8g	ʒu
=3	=3
8a	la-
8bn/	-den
8cc	auf
4cc	ſei-
8dd	-ne
=4	=4
(8.ee	Hoch-
16ff)	.
8dd	-ʒeit
4cc}	Leut;
{8cc	da
=5	=5
*M4/4	*
*met(c)	*
8cc	tan-
8a	-ʒen
(8a	.
8f)	die
8ff	El-
8cc	-fen
(8cc	auf
8a)	.
=6	=6
8aaL	grü-
8ffJ	.
8ffL	-nem
8ccJ	.
8ccL	Land,
8b-J}	.
{8b-	Erl-
8b-	.
=7	=7
8b-/	-kö-
8g	-ni-
8gL	-ges
8eJ	.
8ee	Toch-
8b-	-ter
8b-L	.
8gJ	die
=8	=8
8gg	reicht
8ee	ihm
8eeL	die
8b-J	.
8b-	Hand.
8a}	.
{8aL	Will-
8ccJ	.
=10	=10
8ff	-kom-
8cc	-men,
8ccL	Herr
8ffJ	.
8dd	O-
8b-	-loff!
8b-L	was
8ddJ	.
=11	=11
8.cc	eilſt
16dd	du
8ccL	von
8b-J	.
4.a}	hier?
{8cc	Komm
=12	=12
8ff	her
8cc	in
8ccL	die
8ffJ	.
8dd	Rei-
8b-	-hen,
8b-L	und
8ddJ	.
=13	=13
8.cc	tan-
16dd	.
8ccL	-ʒe
8b-J	mit
4f	mir!
4cc;}	.
==	==
!!!AGN: Sagen - Lied, Romanze
!!!ONB: ESAC (Essen Associative Code) Database: ZUCCAL
!!!AMT: irregular
!!!AIN: vox
!!!EED: Helmut Schaffrath
!!!EEV: 1.0
!!!GTL: I. Ernste Romanzen und Sagen.
!!!URL-scan: https://www.digitale-sammlungen.de/de/view/bsb11160571?page=26
!!!ENC: Anna Maria Matuszewska
!!!EEV: 2025/01/22
*-	*-
